X:571
T: Das Kiddelein (270), S. 575
N: T0459
O: Luxemburg
S: Singendes Volk, Esch-Alzette, 1937 posth.]
N: Rammeldingen, J.P. Gloden, 19.2.1934
R: ???]
M: 2/4
L: 1/16
K: D
A2 | A2G2F2FF | G2B2A2
D2 | D2D2E2F2 | GGF2E2
A2 | F2EED2D2 | D4z2
D2 | D2D2E2F2 | GG2FE2
A2 | F2EED2

@@@ Tune index: 8625
